!!!!SEGMENT: pl-wn--mus-57--001-005_sowinski-wojciech--messe-breve-benedictus.krn
!!!cenid: 18xx:3576
!!!COM: Sowiński, Wojciech
!!!COM-rismID: pe30008543
!!!CDT: ~1803-1880/03/05
!!!CNT:
!!!OPR: Messe Breve
!!!OTL: Benedictus
!!!OMV: 005
!!!PDT: 1872
!!!AGN:
!!!SMS-siglum: PL-Wn
!!!SMS-shelfmark: Mus.57
!!!SMS-shelfwork: 001-005 M
!!!SMS-variant:
!!!SMS-altvar:
!!!NIFC-rismSourceID:
!!!NIFC-rismChildID:
!!!NIFC-islandoraID: none
!!!URL-pdf-islandora:
!!!URL-scan: https://polona.pl/item/messe-breve-a-deux-voix-egales-avec-accompagnement-d-orgue-composee-pour-l-eglise-de,NDI0MDY1OTQ/1 @EN{Scan on Polona} @PL{Skany w portalu Polona}
!!!IIIF: https://polona.pl/iiif/item/NDI0MDY1OTQ/manifest.json
!!!ONB-nifc: UWAGA: części Mszy: 1. Kyrie, 2. Gloria, 3. Credo, 4. Sanctus, 5. Benedictus, 6. Agnus Dei
!!!OMD: Più tosto Lento espressivo
!!!AIN: 1 bass 1 organ 1 tenor
!!!key: E-
**kern	**kern	**dynam	**kern	**kern	**text	**dynam
*part3	*part3	*part3	*part2	*part1	*part1	*part1
*staff4	*staff3	*staff3	*staff2	*staff1	*staff1	*
*I"Orgue	*I"Orgue	*	*I"Basse	*I"Tenor Solo	*	*
*Iorgan	*Iorgan	*	*Ibass	*Itenor	*	*
*ICklav	*ICklav	*	*ICvox	*ICvox	*	*
*	*	*	*	*ITrd8c12	*	*
*clefF4	*clefG2	*	*clefF4	*clefG2	*	*
*k[b-e-a-]	*k[b-e-a-]	*	*k[b-e-a-]	*k[b-e-a-]	*	*
*E-:	*E-:	*	*E-:	*E-:	*	*
*M4/4	*M4/4	*	*M4/4	*M4/4	*	*
*met(c)	*met(c)	*	*met(c)	*met(c)	*	*
*all\right	*all\right	*	*	*all\right	*	*
=1	=1	=1	=1	=1	=1	=1
*xywh-21:61,765,5164,1338	*xywh-21:61,765,5164,1338	*	*	*xywh-21:43,34,5207,1025	*	*
*2\right	*	*	*	*	*	*
!	!LO:TX:b:i:t=legato	!	!	!	!	!
!	!LO:TX:a:i:t=Più tosto Lento espressivo	!LO:DY:b:rj	!	!	!	!
2EE-\ 2E-	(>2B-/ 2e- 2g	p	1ryy	1ryy	.	.
4EE-\ 4E-	4c/ 4e- 4a-	.	.	.	.	.
4EE-\ 4E-	4B-/ 4e- 4g	.	.	.	.	.
=2	=2	=2	=2	=2	=2	=2
*	*^	*	*	*	*	*
2EE-\ 2E-	2An/ 2c 2f	2ryy	.	1ryy	1ryy	.	.
*	*	*2\right	*	*	*	*	*
2EE-\ 2E-	4g/	2A-X\ 2d	.	.	.	.	.
.	4f/)	.	.	.	.	.	.
*	*v	*v	*	*	*	*	*
=3	=3	=3	=3	=3	=3	=3
2EE-\ 2E-	2G/ 2B- 2e-	.	1ryy	1ryy	.	.
4.AA-^\	4.A-^/ 4.c 4.e-	.	.	.	.	.
8AA-\	8A-/ 8c 8e-	.	.	.	.	.
=4	=4	=4	=4	=4	=4	=4
2EE-\ 2E-	2G/ 2B- 2e-	.	1ryy	1ryy	.	.
2r	2r	.	.	.	.	.
=5	=5	=5	=5	=5	=5	=5
!	!	!	!	!	!	!LO:DY:a
2EE-\ 2E-	(>2B-/ 2e- 2g	p <	1ryy	(>2G/	Be-	p
4EE-\ 4E-	4c/ 4e- 4a-	[	.	4A-/)	.	.
4EE-\ 4E-	4B-/ 4e- 4g	.	.	4G/	-ne-	.
=6	=6	=6	=6	=6	=6	=6
*	*^	*	*	*	*	*
2EE-\ 2E-	(>2An/) 2c 2f	2ryy	.	1ryy	2F/	-dic-	.
2EE-\ 2E-	4g/	2A-X\ 2d	.	.	4G/	-tus	.
.	4f/)	.	.	.	4F/	qui	.
*	*v	*v	*	*	*	*	*
!!LO:LB:g=original
=7	=7	=7	=7	=7	=7	=7
*xywh-21:8,2608,5260,1278	*xywh-21:8,2608,5260,1278	*	*	*xywh-21:69,1964,5146,782	*	*
2EE-\ 2E-	2G/ 2B- 2e-	.	1ryy	(>2E-/	ve-	.
2BBB-\ 2BB-	2B-/ 2d 2f	.	.	2F/)	.	.
=8	=8	=8	=8	=8	=8	=8
2EE-/	2B-/ 2e- 2g	.	1ryy	2G/	-nit	.
2r	2r	.	.	2r	.	.
=9	=9	=9	=9	=9	=9	=9
2EE-\ 2E-	2e-\ 2g	p <	1ryy	2G/	in	.
2DD\ 2D	2f\ 2b-	.	.	4B-\	no-	.
.	.	.	.	4B-\	-mi-	.
=10	=10	=10	=10	=10	=10	=10
*	*	*	*	*2\right	*	*
2CC/ 2C	2.g\ 2.ee-	[	1ryy	(>2.e-^^>\	-ne	.
2GGG^^>/ 2GG	.	.	.	.	.	.
.	4e-^^>\ 4b- 4dd	.	.	4d\)	.	.
=11	=11	=11	=11	=11	=11	=11
.	4qqdd/	.	.	4qqd/	.	.
!	!	!LO:DY:b	!	!	!	!
1AAA- 1AA-	2.e-\ 2.a- 2.cc	sf	1ryy	2.c\	do-	.
.	4g\ 4b-	.	.	4B-\	-mi-	.
=12	=12	=12	=12	=12	=12	=12
2EE-\ 2E-	(>2g\ 2b-	>	1ryy	2B-\	-ni	.
2r	4f#X\ 4an	.	.	2r	.	.
.	4fn\) 4a	]	.	.	.	.
=13	=13	=13	=13	=13	=13	=13
*	*^	*	*	*	*	*
2EE-\ 2E-	2e-/ 2g	4B-\	<	1ryy	(>2G/	Be-	.
.	.	4Bn\	.	.	.	.	.
4EE-\ 4E-	4e-/ 4a-	4c\	[ >	.	4A-/)	.	.
!	!	!	!	!	!	!	!LO:HP:a
4EE-\ 4E-	4e-/ 4g	4B-X\	.	.	4G/	-ne-	<
*	*v	*v	*	*	*	*	*
=14	=14	=14	=14	=14	=14	=14
2EE-\ 2E-	2An/ 2c 2f	]	1ryy	(>2F/	-dic-	.
2EE-\ 2E-	2A-X/ 2d 2f	.	.	4c\)	.	.
.	.	.	.	4B-\	-tus	[
!!LO:LB:g=original
=15	=15	=15	=15	=15	=15	=15
*xywh-21:8,4329,5225,1165	*xywh-21:8,4329,5225,1165	*	*	*xywh-21:0,3686,5242,747	*	*
2EE-\ 2E-	2G</ 2B- 2e-	.	1ryy	2E-/	qui	.
2AAA-\ 2AA-	2A-</ 2c 2e-	.	.	2E-/	ve-	.
=16	=16	=16	=16	=16	=16	=16
2EE-\ 2E-	2G</ 2B- 2e-	.	1ryy	2E-/	-nit	.
2r	2r	.	.	2r	.	.
=17	=17	=17	=17	=17	=17	=17
2EE-\ 2E-	2B-/ 2e- 2g	.	1ryy	2G\	qui	.
2GG\ 2G	2B-^</ 2e- 2b-	.	.	2B-\	ve-	.
=18	=18	=18	=18	=18	=18	=18
4FF\ 4F	4d/ 4a-	<	1ryy	4A-\	-nit	.
4EE-\ 4E-	4e-/ 4g	.	.	4G\	in	.
4AA-^^>\ 4A-	4e-\ 4cc	[	.	4c\	no-	.
4GG^^>\ 4G	4f\ 4bn	.	.	4Bn\	-mi-	.
=19	=19	=19	=19	=19	=19	=19
1GG 1G	1f 1bn	sf	1ryy	1Bn^>	-ne	.
=20	=20	=20	=20	=20	=20	=20
!	!	!	!	!	!	!LO:DY:a
(>4GG'>\ 4G	(>4g'>/	<	1ryy	[>2G/	Be-	p
4GG'>\ 4G	4g'>/	.	.	.	.	.
4GG'>\ 4G	4g'>/	.	.	4G/]	.	.
4GG'>\) 4G	4g'>/)	[	.	4G/	-ne-	.
=21	=21	=21	=21	=21	=21	=21
2CC/ 2C	2e-^<\ 2g 2ee-	.	1ryy	(>2e-\	-dic-	.
4C\ 4c	4e-\ 4g 4dd	.	.	4d\	.	.
4C\ 4c	4e-\ 4g 4cc	.	.	4c\)	.	.
=22	=22	=22	=22	=22	=22	=22
2CC/ 2C	(>4e-\ 4g 4cc	.	1ryy	2.c\	-tus	.
.	4g\	.	.	.	.	.
2C\ 2c	4e-\	.	.	.	.	.
.	4g\)	.	.	4G/	qui	.
!!LO:LB:g=original
=23	=23	=23	=23	=23	=23	=23
*xywh-21:43,5999,5190,1399	*xywh-21:43,5999,5190,1399	*	*	*xywh-21:43,5381,5181,721	*	*
2BBn\ 2Bn	2d/ 2f 2a-	>	1ryy	2A-/	ve-	.
2C\ 2c	2e-/ 2g	]	.	2G/	-nit	.
=24	=24	=24	=24	=24	=24	=24
2r	2r	.	1ryy	2r	.	.
!	!	!LO:DY:b	!	!	!	!
4C\ 4c	4e-/ 4g	p	.	4G/	Be-	p
4C\ 4c	4e-/ 4g	.	.	4G/	-ne-	.
=25	=25	=25	=25	=25	=25	=25
!	!	!	!	!	!	!LO:HP:a
2BB-X^>\ 2B-X	[>1c 1en 1g	.	1ryy	1G	-dic-	<
!	!	!	!	!	!	!LO:HP:a
4AA-\ 4A-	.	.	.	.	.	[ >
4GG\ 4G	.	.	.	.	.	]
=26	=26	=26	=26	=26	=26	=26
*	*^	*	*	*	*	*
!	!	!	!	!	!	!	!LO:DY:a
4BB-\ 4B-	(>4g/	2c\]	<	1ryy	4G/	-tus	] <
4AA-\ 4A-	4f/	.	.	.	4F/	qui	.
2AA-\ 2A-	4bn/	2f\	.	.	4Bn\	ve-	.
.	4cc/)	.	.	.	4c\	-nit	[[
*	*v	*v	*	*	*	*	*
=27	=27	=27	=27	=27	=27	=27
!	!	!	!	!	!	!LO:DY:a
2BBB-/ 2BB-	2G/ 2B- 2e-	[ p	1ryy	2E-/	in	p
4BBB-/ 4BB-	4A-/ 4d	.	.	4D/	no-	.
4BBB-/ 4BB-	4G/ 4e-	.	.	4E-/	-mi-	.
=28	=28	=28	=28	=28	=28	=28
*^	*^	*	*	*	*	*
2BBB-/ 2BB-	2ryy	2.g^>/	2A-\ 2d	.	1ryy	2.G/	-ne	.
4B-/	2BB-\	.	2d\	.	.	.	.	.
4A-/	.	4f/	.	.	.	4F/	in	.
*v	*v	*	*	*	*	*	*	*
*	*v	*v	*	*	*	*	*
=29	=29	=29	=29	=29	=29	=29
2GG\ 2G	2.B-/ 2.d 2.b-	.	1ryy	2.B-^>\	no-	.
2GG\ 2G	.	.	.	.	.	.
.	4B-/ 4d 4b-	.	.	4B-\	-mi-	.
=30	=30	=30	=30	=30	=30	=30
*	*^	*	*	*	*	*
2.CC/ 2.C	(>4b-/	2.c\ 2.e-	.	1ryy	(>4B-\	-ne	.
.	4an/	.	.	.	4An\)	.	.
!	!	!	!	!	!	!	!LO:HP:a
.	4b-/	.	.	.	4B-\	Do-	<
4CC/ 4C	4cc/)	4c\ 4e-	.	.	4c\	-mi-	[[
*	*v	*v	*	*	*	*	*
!!LO:PB:g=original
=31	=31	=31	=31	=31	=31	=31
*xywh-22:59,838,5274,1176	*xywh-22:59,838,5274,1176	*	*	*xywh-22:25,8,5265,880	*	*
2DD\ 2D	2d/ 2g 2b-	<[	1ryy	2B-\	-ni	.
!	!LO:SIC:v:n=1:s=4an	!	!	!	!	!
4DD\ 4D	4d/ 4g 4a-	>	.	4An\	Be-	.
!	!LO:SIC:v:n=1:s=4an	!	!	!	!	!
4DD\ 4D	4c/ 4f#X 4a-	]	.	4A\	-ne-	.
=32	=32	=32	=32	=32	=32	=32
!	!	!LO:DY:b	!	!	!	!
1DD 1D	1Bn 1f 1an	sf	1ryy	(>[>1A-X	-dic-	.
=33	=33	=33	=33	=33	=33	=33
*	*^	*	*	*	*	*
2EE-\ 2E-	(4a-/	2c\ 2e-	.	1ryy	4A-/]	.	.
.	4g/)	.	.	.	4G/)	.	.
2EE-\ 2E-	2g/	4e-\	.	.	2G/	-tus	.
.	.	4d-X\	.	.	.	.	.
=34	=34	=34	=34	=34	=34	=34	=34
(>4EEn\ 4En	(>4d-X/ 4b-	4ryy	>	1ryy	4B-\	Be-	.
4FF\ 4F	4a-/	4c\	.	.	4A-\	-ne-	.
4GG\ 4G	4g/	4B-\	.	.	(>4G/	-dic-	.
4AA-\) 4A-	4f/)	4c\	]	.	4F/)	.	.
*	*v	*v	*	*	*	*	*
=35	=35	=35	=35	=35	=35	=35
2.BBB-/ 2.BB-	2G/ 2e-	.	1ryy	(>2.E-/	-tus	.
.	(<4B-/	.	.	.	.	.
8G\L	8e-/L	.	.	4F/)	.	.
8E-X\J	8f/J)	.	.	.	.	.
=36	=36	=36	=36	=36	=36	=36
*	*^	*	*	*	*	*
*	*	*^	*	*	*	*	*
2BB-\	2B-/ 2e- 2g	2ryy	2ryy	.	1ryy	2G/	qui	.
2BBB-/ 2BB-	2f/	2B-\	4e-\yy	.	.	2F/	ve-	.
.	.	.	4d\	.	.	.	.	.
*	*v	*v	*v	*	*	*	*	*
=37	=37	=37	=37	=37	=37	=37
4EE-\ 4E-	(>4e-\	.	1ryy	2E-/	-nit	.
(>4B-\	4b-\	.	.	.	.	.
4G\	4g\	.	.	4r	.	.
4E-\)	4e-\)	.	.	4E-/	in	.
!!LO:LB:g=original
=38	=38	=38	=38	=38	=38	=38
*	*^	*	*	*	*	*
*xywh-22:42,2497,5155,1125	*xywh-22:42,2497,5155,1125	*xywh-22:42,2497,5155,1125	*	*	*xywh-22:42,1939,5240,660	*	*
1BB- 1F 1A-	(>4d/	2.d\	<	1ryy	(>4D/	no-	.
.	4b-/	.	[	.	4B-\	.	.
.	4cc/	.	>	.	4c\)	.	.
.	4b-/)	4d\	]	.	4B-\	-mi-	.
*	*v	*v	*	*	*	*	*
=39	=39	=39	=39	=39	=39	=39
1E- 1G	(4e-/	.	1ryy	2E-/	-ne	.
.	4g/	.	.	.	.	.
.	4b-/	.	.	4F/	do-	.
.	4ee-\)	.	.	4E-/	-mi-	.
=40	=40	=40	=40	=40	=40	=40
(>4BB-\ 4F	1f 1dd	<	1ryy	1D	-ni	.
4B-\	.	[	.	.	.	.
4c\	.	>	.	.	.	.
4B-\)	.	]	.	.	.	.
=41	=41	=41	=41	=41	=41	=41
*	*^	*	*	*	*	*
1E- 1G	(>4e-/ 4ee-	2.e-\	]	1ryy	4E-/	qui	.
.	4g/	.	.	.	4G/	ve-	.
.	4a-/	.	.	.	4A-/	-nit	.
.	4b-/)	4d-X\	.	.	4B-/	in	.
=42	=42	=42	=42	=42	=42	=42	=42
2.AA-\ 2.A-	1a-	4c\	.	1ryy	1A-	no-	.
.	.	4dn\	.	.	.	.	.
.	.	2e-\	.	.	.	.	.
8A-\L	.	.	.	.	.	.	.
8G\J	.	.	.	.	.	.	.
=43	=43	=43	=43	=43	=43	=43	=43
*^	*	*	*	*	*	*	*
2F\	2ryy	(>4an/	2e-\	<	1ryy	4An\	-mi-	.
.	.	4cc/	.	[	.	4c\	-ne	.
(>4F/	2FF\	4dd/	4f\	>	.	4d\	Do-	.
8G/L	.	4cc/)	4e-\	]	.	4c\	-mi-	.
8An/J)	.	.	.	.	.	.	.	.
*v	*v	*	*	*	*	*	*	*
!!LO:LB:g=original
=44	=44	=44	=44	=44	=44	=44	=44
*xywh-22:33,4182,5231,1142	*xywh-22:33,4182,5231,1142	*xywh-22:33,4182,5231,1142	*	*	*xywh-22:67,3530,5197,778	*	*
2BB-\ 2B-	2cc\	2.d^<\ 2.f	]	1ryy	2c\	-ni	.
!	!	!	!	!	!LO:TX:a:t=rall.	!	!
2BBB-/ 2BB-	4b-/	.	.	.	4B-\	Be-	.
.	4a-X/	4d\	.	.	4A-X\	-ne-	.
*	*v	*v	*	*	*	*	*
=45	=45	=45	=45	=45	=45	=45
2EE-/ 2E-	2B-/ 2e- 2g	<	1ryy	2G/	-dic-	.
!	!	!	!	!LO:TX:a:t=a tempo	!	!
4EE-/ 4E-	4c/ 4e- 4a-	[ >	.	4A-/	-tus	.
4EE-/ 4E-	4B-/ 4e- 4g	]]	.	4G/	qui	.
=46	=46	=46	=46	=46	=46	=46
2EE-/ 2E-	2An/ 2c 2f	.	1ryy	(>2F/	ve-	.
2EE-/ 2E-	2A-X/ 2d 2f	.	.	4c\	.	.
.	.	.	.	4B-\)	.	.
=47	=47	=47	=47	=47	=47	=47
!	!	!	!	!	!	!LO:DY:a
1EE- 1E-	1G 1B- 1e- 1g	.	1ryy	1B-	-nit	pp
=48	=48	=48	=48	=48	=48	=48
2r	2r	.	1ryy	2r	.	.
2GG\ 2G	2B-^</ 2e-	.	.	2E-^>/	in	.
=49	=49	=49	=49	=49	=49	=49
*	*^	*	*	*	*	*
1AA- 1A-	1f	2e-\	.	1ryy	2F/	no-	.
.	.	4d\	.	.	4F/	-mi-	.
.	.	4c\	.	.	4F/	-ne	.
!!LO:LB:g=original
=50	=50	=50	=50	=50	=50	=50	=50
*xywh-22:67,5833,5163,1388	*xywh-22:67,5833,5163,1388	*xywh-22:67,5833,5163,1388	*	*	*xywh-22:76,5274,5130,617	*	*
!	!LO:TX:b:i:t=colla voce	!	!	!	!	!	!
2BB-\	4f/	4d\	.	1ryy	(>4F/	Do-	.
!	!LO:TX:a:t=rall.	!	!	!	!	!	!
.	2g/	2.B-\	.	.	2G^>/)	.	.
2BB-^\ 2A-	.	.	.	.	.	.	.
.	4f/	.	.	.	4F/	-mi-	.
*	*v	*v	*	*	*	*	*
=51	=51	=51	=51	=51	=51	=51
!	!	!	!	!	!	!LO:DY:a
2.E-\ 2.G	(>2e-/	p	1ryy	2E-/	-ni	p
.	4e-/ 4g	.	.	2r	.	.
4EE-\ 4E-	4g/) 4b-	.	.	.	.	.
=52	=52	=52	=52	=52	=52	=52
*	*^	*	*	*	*	*
2EE-\ 2E-	(>2b-/ 2ee-	2g\	<	1ryy	1r	.	.
2EE-\ 2E-	4dd/	2a-\ 2cc-X	.	.	.	.	.
.	4ff/	.	[ >	.	.	.	.
=53	=53	=53	=53	=53	=53	=53	=53
2EE-\ 2E-	2ee-/)	2g\ 2b-	.	1ryy	1r	.	.
2r	2r	2r	]	.	.	.	.
*	*v	*v	*	*	*	*	*
==	==	==	==	==	==	==
*-	*-	*-	*-	*-	*-	*-
!!!system-decoration: (s1),(s2){(s3,s4)}
!!!RDF**kern: < = below
!!!RDF**kern: > = above
!!!ENC: Berenika Jozajtis
!!!END: 2022-02-05
!!!ENC: Marta Chmielewska
!!!END: 2022-02-14
!!!ENC-iiif: Jan Barakat
!!!END-iiif: 2022-08-19
!!!YEC: Copyright 2022 Narodowy Instytut Fryderyka Chopina (https://polishscores.org)
!!!YEM: License CC-BY-4.0 (https://creativecommons.org/licenses/by/4.0)
